assets/images/expressjs.svg

<svg width="24" height="24" viewBox="0 0 24 24" fill="none" xmlns="http://www.w3.org/2000/svg">
<g clip-path="url(#clip0_3300_11988)">
<path d="M23.9767 12C23.9767 18.6274 18.6146 24 12.0001 24C5.38556 24 0.0234375 18.6274 0.0234375 12C0.0234375 5.37257 5.38556 0 12.0001 0C18.6146 0 23.9767 5.37257 23.9767 12Z" fill="#626262"/>
<path d="M4.99716 12.6751C5.14107 13.4291 5.47861 14.0142 6.00994 14.4306C6.55225 14.847 7.21639 15.0552 8.00222 15.0552C9.09798 15.0552 9.89494 14.6444 10.393 13.823L11.6216 14.5319C10.8136 15.8035 9.59609 16.4393 7.96905 16.4393C6.6519 16.4393 5.57826 16.0229 4.74813 15.1902C3.92906 14.3462 3.51953 13.2828 3.51953 11.9999C3.51953 10.7283 3.92353 9.67053 4.73153 8.82655C5.53953 7.98256 6.58547 7.56055 7.8694 7.56055C9.08694 7.56055 10.0775 7.99944 10.8413 8.87717C11.6161 9.74366 12.0034 10.7902 12.0034 12.0168C12.0034 12.2306 11.9868 12.4501 11.9537 12.6751H4.99716ZM7.8694 8.94472C7.09461 8.94472 6.45265 9.16977 5.9435 9.61991C5.43436 10.0587 5.11889 10.6496 4.99716 11.3922H10.5424C10.4206 10.5933 10.1108 9.98562 9.6127 9.56923C9.11459 9.15289 8.53349 8.94472 7.8694 8.94472Z" fill="white"/>
<path d="M20.4819 16.2191H18.7885L16.4641 13.0289L14.1232 16.2191H12.4297L15.6174 11.881L12.6123 7.7793H14.3224L16.4641 10.7163L18.6058 7.7793H20.2993L17.3109 11.8642L20.4819 16.2191Z" fill="white"/>
</g>
<defs>
<clipPath id="clip0_3300_11988">
<rect width="24" height="24" fill="white"/>
</clipPath>
</defs>
</svg>

<svg width="24" height="24" viewBox="0 0 24 24" fill="none" xmlns="http://www.w3.org/2000/svg"><g clip-path="url(#a)"><path d="M23.977 12c0 6.627-5.362 12-11.977 12C5.386 24 .023 18.627.023 12S5.386 0 12 0c6.615 0 11.977 5.373 11.977 12Z" fill="#626262"/><path d="M4.997 12.675c.144.754.482 1.34 1.013 1.756.542.416 1.206.624 1.992.624 1.096 0 1.893-.41 2.391-1.232l1.229.709c-.808 1.271-2.026 1.907-3.653 1.907-1.317 0-2.39-.416-3.22-1.249-.82-.844-1.23-1.907-1.23-3.19 0-1.272.405-2.33 1.213-3.173.808-.844 1.853-1.266 3.137-1.266 1.218 0 2.209.438 2.972 1.316.775.867 1.162 1.913 1.162 3.14 0 .214-.016.433-.05.658H4.998Zm2.872-3.73c-.774 0-1.416.225-1.925.675-.51.439-.825 1.03-.947 1.772h5.545c-.121-.799-.431-1.406-.93-1.823a2.636 2.636 0 0 0-1.743-.624Zm12.613 7.275h-1.694l-2.324-3.191-2.34 3.19H12.43l3.187-4.338-3.005-4.102h1.71l2.142 2.937 2.142-2.937h1.693l-2.988 4.085 3.17 4.355Z" fill="#fff"/></g><defs><clipPath id="a"><path fill="#fff" d="M0 0h24v24H0z"/></clipPath></defs></svg>
